X:163
T:My Darling Asleep
C:Joe Buchanan's Scottish Tome - Page 263.1
I:263 1
Z:Carl Allison
S:Irish Jigs
R:Jig
L:1/8
M:6/8
K:D
a/g/ | fdd cAA | BGG A2 G | FAA def | gfg eag |
fdd cAA | BGG A2 G | FAA def | gec d2 :|
A | FAA BAA | FAA {Bc}B A2 | FAA def | gfg eag |
fdd cAA | BGG A2 G | FAA def | gec d2 :|

